X:1
T:The Bush Reel
M:C
L:1/8
Q:80
C:Scott MacAulay
S:Reel
K:HP
|: {gAGAG}A2{g}c{d}A{g}ce{g}fe | \
{ag}a2gafe{g}cB | \
{gAGAG}A2{g}c{d}A{g}ce{g}fe |
af{g}ec{g}Bd{e}G{d}B :: \
{gAGAG}A2agae{g}fa | \
{AGAG}A2ae{g}fe{g}cB |
{gAGAG}A2ae{g}fae{g}f | \
af{g}ec{g}Bd{e}G{d}B :|
